X:1
T:Portadown
M:3/4
L:1/8
K:C
 G,| C2 CC DE| G2 G G2 G| A2 G A2 B| G3- G2 G| A2 G A2 B| G2 G E2 G|\
 C2 D C2 A,| C3- C2 G,| C2 CC-D E| G2 G G2 G| A2 G A2 B| G3- G2 G/2G/2|\
 A2 G A2 B| G2 G E2 G| C2 D C2 A,| C3- C2||
